X: 18
T: Toss The Feathers
Z: Michael Toomey
S: https://thesession.org/tunes/138#setting36188
R: reel
M: 4/4
L: 1/8
K: Dmix
D2 AD EDAD|D2 AG EAGE|D2 AD EDEG|AddB cAGE|
D2 AD EDAD|D2 AG EAGE|D2 AD EDEG|cAGE ED D2||
Add^c d2 cd|ed^cd ed d2|eaag ed^cd|ed^cd ed d2|
eaag efge|dged cAGE|D2 AD EDEG|cAGE ED D2||

